packages/IonIcons/src/SkullSharpIcon/index.svg

<svg xmlns="http://www.w3.org/2000/svg" viewBox="0 0 512 512">
  <path d="M256 16C141.31 16 48 109.31 48 224v154.83l82 32.81L146.88 496H192v-64h32v64h16v-64h32v64h16v-64h32v64h45.12L382 411.64l82-32.81V224c0-114.69-93.31-208-208-208zm-88 320a56 56 0 1156-56 56.06 56.06 0 01-56 56zm51.51 64L244 320h24l24.49 80zM344 336a56 56 0 1156-56 56.06 56.06 0 01-56 56zm104 32z"/>
</svg>

<svg xmlns="http://www.w3.org/2000/svg" width="512" height="512" viewBox="0 0 512 512"><title>ionicons-v5-l</title><path d="M256,16C141.31,16,48,109.31,48,224V378.83l82,32.81L146.88,496H192V432h32v64h16V432h32v64h16V432h32v64h45.12L382,411.64l82-32.81V224C464,109.31,370.69,16,256,16ZM168,336a56,56,0,1,1,56-56A56.06,56.06,0,0,1,168,336Zm51.51,64L244,320h24l24.49,80ZM344,336a56,56,0,1,1,56-56A56.06,56.06,0,0,1,344,336Zm104,32h0Z"/></svg>
